TrafficJam2023/images/main-page/Vector 16.svg

<svg xmlns="http://www.w3.org/2000/svg" width="293" height="265" fill="none" viewBox="0 0 293 265"><g filter="url(#a)"><path fill="#FCFDFD" d="m30 27-10 4.773V20.227L30 25v2Zm237 207.167a5.332 5.332 0 0 1 5.333 5.333 5.332 5.332 0 0 1-5.333 5.333 5.332 5.332 0 0 1-5.333-5.333 5.332 5.332 0 0 1 5.333-5.333Zm-4.686-121.353.707-.707-.707.707Zm-82.128-82.128-.707.707.707-.707ZM29 25h139.873v2H29v-2Zm239 99.127V239.5h-2V124.127h2Zm-87.107-94.148 82.128 82.128-1.414 1.414-82.128-82.128 1.414-1.414ZM266 124.127c0-3.978-1.58-7.793-4.393-10.606l1.414-1.414a17 17 0 0 1 4.979 12.02h-2ZM168.873 25a17 17 0 0 1 12.02 4.98l-1.414 1.413A15 15 0 0 0 168.873 27v-2Z"/></g><defs><filter id="a" width="292.333" height="264.607" x="0" y="0.226501" color-interpolation-filters="sRGB" filterUnits="userSpaceOnUse"><feFlood flood-opacity="0" result="BackgroundImageFix"/><feGaussianBlur in="BackgroundImageFix" stdDeviation="5.5"/><feComposite in2="SourceAlpha" operator="in" result="effect1_backgroundBlur_117_502"/><feColorMatrix in="SourceAlpha" result="hardAlpha" values="0 0 0 0 0 0 0 0 0 0 0 0 0 0 0 0 0 0 127 0"/><feOffset/><feGaussianBlur stdDeviation="10"/><feComposite in2="hardAlpha" operator="out"/><feColorMatrix values="0 0 0 0 0 0 0 0 0 0.52 0 0 0 0 1 0 0 0 1 0"/><feBlend in2="effect1_backgroundBlur_117_502" result="effect2_dropShadow_117_502"/><feColorMatrix in="SourceAlpha" result="hardAlpha" values="0 0 0 0 0 0 0 0 0 0 0 0 0 0 0 0 0 0 127 0"/><feOffset/><feGaussianBlur stdDeviation="10"/><feComposite in2="hardAlpha" operator="out"/><feColorMatrix values="0 0 0 0 0 0 0 0 0 0.52 0 0 0 0 1 0 0 0 1 0"/><feBlend in2="effect2_dropShadow_117_502" result="effect3_dropShadow_117_502"/><feColorMatrix in="SourceAlpha" result="hardAlpha" values="0 0 0 0 0 0 0 0 0 0 0 0 0 0 0 0 0 0 127 0"/><feOffset/><feGaussianBlur stdDeviation="3.5"/><feComposite in2="hardAlpha" operator="out"/><feColorMatrix values="0 0 0 0 1 0 0 0 0 1 0 0 0 0 1 0 0 0 1 0"/><feBlend in2="effect3_dropShadow_117_502" result="effect4_dropShadow_117_502"/><feBlend in="SourceGraphic" in2="effect4_dropShadow_117_502" result="shape"/><feColorMatrix in="SourceAlpha" result="hardAlpha" values="0 0 0 0 0 0 0 0 0 0 0 0 0 0 0 0 0 0 127 0"/><feOffset/><feGaussianBlur stdDeviation="10"/><feComposite in2="hardAlpha" k2="-1" k3="1" operator="arithmetic"/><feColorMatrix values="0 0 0 0 0 0 0 0 0 0.88 0 0 0 0 1 0 0 0 1 0"/><feBlend in2="shape" result="effect5_innerShadow_117_502"/><feColorMatrix in="SourceAlpha" result="hardAlpha" values="0 0 0 0 0 0 0 0 0 0 0 0 0 0 0 0 0 0 127 0"/><feOffset/><feGaussianBlur stdDeviation="10"/><feComposite in2="hardAlpha" k2="-1" k3="1" operator="arithmetic"/><feColorMatrix values="0 0 0 0 0 0 0 0 0 0.88 0 0 0 0 1 0 0 0 1 0"/><feBlend in2="effect5_innerShadow_117_502" result="effect6_innerShadow_117_502"/><feColorMatrix in="SourceAlpha" result="hardAlpha" values="0 0 0 0 0 0 0 0 0 0 0 0 0 0 0 0 0 0 127 0"/><feOffset/><feGaussianBlur stdDeviation="3.5"/><feComposite in2="hardAlpha" k2="-1" k3="1" operator="arithmetic"/><feColorMatrix values="0 0 0 0 1 0 0 0 0 1 0 0 0 0 1 0 0 0 1 0"/><feBlend in2="effect6_innerShadow_117_502" result="effect7_innerShadow_117_502"/></filter></defs></svg>

<svg width="293" height="265" viewBox="0 0 293 265" fill="none" xmlns="http://www.w3.org/2000/svg">
<g filter="url(#filter0_bdddiii_117_502)">
<path d="M30 27L20 31.7735L20 20.2265L30 25L30 27ZM267 234.167C269.946 234.167 272.333 236.554 272.333 239.5C272.333 242.446 269.946 244.833 267 244.833C264.054 244.833 261.667 242.446 261.667 239.5C261.667 236.554 264.054 234.167 267 234.167ZM262.314 112.814L263.021 112.107L262.314 112.814ZM180.186 30.6863L179.479 31.3934L180.186 30.6863ZM29 25L168.873 25L168.873 27L29 27L29 25ZM268 124.127L268 239.5L266 239.5L266 124.127L268 124.127ZM180.893 29.9792L263.021 112.107L261.607 113.521L179.479 31.3934L180.893 29.9792ZM266 124.127C266 120.149 264.42 116.334 261.607 113.521L263.021 112.107C266.209 115.295 268 119.619 268 124.127L266 124.127ZM168.873 25C173.381 25 177.705 26.7911 180.893 29.9792L179.479 31.3934C176.666 28.5804 172.851 27 168.873 27L168.873 25Z" fill="#FCFDFD"/>
</g>
<defs>
<filter id="filter0_bdddiii_117_502" x="0" y="0.226501" width="292.333" height="264.607" filterUnits="userSpaceOnUse" color-interpolation-filters="sRGB">
<feFlood flood-opacity="0" result="BackgroundImageFix"/>
<feGaussianBlur in="BackgroundImageFix" stdDeviation="5.5"/>
<feComposite in2="SourceAlpha" operator="in" result="effect1_backgroundBlur_117_502"/>
<feColorMatrix in="SourceAlpha" type="matrix" values="0 0 0 0 0 0 0 0 0 0 0 0 0 0 0 0 0 0 127 0" result="hardAlpha"/>
<feOffset/>
<feGaussianBlur stdDeviation="10"/>
<feComposite in2="hardAlpha" operator="out"/>
<feColorMatrix type="matrix" values="0 0 0 0 0 0 0 0 0 0.52 0 0 0 0 1 0 0 0 1 0"/>
<feBlend mode="normal" in2="effect1_backgroundBlur_117_502" result="effect2_dropShadow_117_502"/>
<feColorMatrix in="SourceAlpha" type="matrix" values="0 0 0 0 0 0 0 0 0 0 0 0 0 0 0 0 0 0 127 0" result="hardAlpha"/>
<feOffset/>
<feGaussianBlur stdDeviation="10"/>
<feComposite in2="hardAlpha" operator="out"/>
<feColorMatrix type="matrix" values="0 0 0 0 0 0 0 0 0 0.52 0 0 0 0 1 0 0 0 1 0"/>
<feBlend mode="normal" in2="effect2_dropShadow_117_502" result="effect3_dropShadow_117_502"/>
<feColorMatrix in="SourceAlpha" type="matrix" values="0 0 0 0 0 0 0 0 0 0 0 0 0 0 0 0 0 0 127 0" result="hardAlpha"/>
<feOffset/>
<feGaussianBlur stdDeviation="3.5"/>
<feComposite in2="hardAlpha" operator="out"/>
<feColorMatrix type="matrix" values="0 0 0 0 1 0 0 0 0 1 0 0 0 0 1 0 0 0 1 0"/>
<feBlend mode="normal" in2="effect3_dropShadow_117_502" result="effect4_dropShadow_117_502"/>
<feBlend mode="normal" in="SourceGraphic" in2="effect4_dropShadow_117_502" result="shape"/>
<feColorMatrix in="SourceAlpha" type="matrix" values="0 0 0 0 0 0 0 0 0 0 0 0 0 0 0 0 0 0 127 0" result="hardAlpha"/>
<feOffset/>
<feGaussianBlur stdDeviation="10"/>
<feComposite in2="hardAlpha" operator="arithmetic" k2="-1" k3="1"/>
<feColorMatrix type="matrix" values="0 0 0 0 0 0 0 0 0 0.88 0 0 0 0 1 0 0 0 1 0"/>
<feBlend mode="normal" in2="shape" result="effect5_innerShadow_117_502"/>
<feColorMatrix in="SourceAlpha" type="matrix" values="0 0 0 0 0 0 0 0 0 0 0 0 0 0 0 0 0 0 127 0" result="hardAlpha"/>
<feOffset/>
<feGaussianBlur stdDeviation="10"/>
<feComposite in2="hardAlpha" operator="arithmetic" k2="-1" k3="1"/>
<feColorMatrix type="matrix" values="0 0 0 0 0 0 0 0 0 0.88 0 0 0 0 1 0 0 0 1 0"/>
<feBlend mode="normal" in2="effect5_innerShadow_117_502" result="effect6_innerShadow_117_502"/>
<feColorMatrix in="SourceAlpha" type="matrix" values="0 0 0 0 0 0 0 0 0 0 0 0 0 0 0 0 0 0 127 0" result="hardAlpha"/>
<feOffset/>
<feGaussianBlur stdDeviation="3.5"/>
<feComposite in2="hardAlpha" operator="arithmetic" k2="-1" k3="1"/>
<feColorMatrix type="matrix" values="0 0 0 0 1 0 0 0 0 1 0 0 0 0 1 0 0 0 1 0"/>
<feBlend mode="normal" in2="effect6_innerShadow_117_502" result="effect7_innerShadow_117_502"/>
</filter>
</defs>
</svg>
